www/assets/icons/remove_moderator.svg

<svg width="24" height="24" viewBox="0 0 24 24" xmlns="http://www.w3.org/2000/svg" fill='currentColor'><path d="M22.635 21.73L19.095 18.18L2.63499 1.72L1.36499 2.99L3.37499 5H3.36499V11C3.36499 16.55 7.20499 21.74 12.365 23C14.525 22.47 16.445 21.24 17.965 19.59L21.365 23L22.635 21.73ZM20.035 16.59C20.875 14.87 21.365 12.96 21.365 11V5L12.365 1L6.88499 3.44L20.035 16.59Z"/></svg>

<svg xmlns="http://www.w3.org/2000/svg" width="24" height="24" viewBox="0 0 24 24" fill='currentColor'><path d="m22.635 21.73-3.54-3.55L2.635 1.72l-1.27 1.27L3.375 5h-.01v6c0 5.55 3.84 10.74 9 12 2.16-.53 4.08-1.76 5.6-3.41l3.4 3.41zm-2.6-5.14c.84-1.72 1.33-3.63 1.33-5.59V5l-9-4-5.48 2.44z"/></svg>
